Newaita/actions/32/tools-rip-audio-cd.svg

<?xml version="1.0" encoding="UTF-8"?>
<svg xmlns="http://www.w3.org/2000/svg" xmlns:xlink="http://www.w3.org/1999/xlink" width="32pt" height="32pt" viewBox="0 0 32 32" version="1.1">
<g id="surface1">
<path style=" stroke:none;fill-rule:nonzero;fill:rgb(25.882354%,25.882354%,25.882354%);fill-opacity:1;" d="M 15.875 1.574219 C 7.8125 1.574219 1.324219 8.0625 1.324219 16.125 L 3.308594 16.125 C 3.308594 9.164062 8.914062 3.558594 15.875 3.558594 C 22.839844 3.558594 28.445312 9.164062 28.445312 16.125 C 28.445312 23.089844 22.839844 28.695312 15.875 28.695312 L 15.875 30.679688 C 23.9375 30.679688 30.429688 24.1875 30.429688 16.125 C 30.429688 8.0625 23.9375 1.574219 15.875 1.574219 Z M 15.875 1.574219 "/>
<path style=" stroke:none;fill-rule:nonzero;fill:rgb(47.058824%,56.470591%,61.176473%);fill-opacity:1;" d="M 15.875 10.835938 C 12.945312 10.835938 10.585938 13.195312 10.585938 16.125 C 10.585938 19.058594 12.945312 21.417969 15.875 21.417969 C 18.808594 21.417969 21.167969 19.058594 21.167969 16.125 C 21.167969 13.195312 18.808594 10.835938 15.875 10.835938 Z M 15.875 13.480469 C 17.34375 13.480469 18.523438 14.660156 18.523438 16.125 C 18.523438 17.59375 17.34375 18.773438 15.875 18.773438 C 14.410156 18.773438 13.230469 17.59375 13.230469 16.125 C 13.230469 14.660156 14.410156 13.480469 15.875 13.480469 Z M 15.875 13.480469 "/>
<path style=" stroke:none;fill-rule:nonzero;fill:rgb(14.901961%,65.098041%,60.392159%);fill-opacity:1;" d="M 7.277344 20.425781 C 6.910156 20.425781 6.613281 20.722656 6.613281 21.089844 L 6.613281 25.539062 C 6.203125 25.441406 5.757812 25.386719 5.292969 25.386719 C 3.09375 25.386719 1.324219 26.566406 1.324219 28.035156 C 1.324219 29.5 3.09375 30.679688 5.292969 30.679688 C 7.492188 30.679688 9.261719 29.5 9.261719 28.035156 L 9.308594 28.035156 L 9.339844 23.074219 L 11.246094 23.074219 C 11.613281 23.074219 11.90625 22.777344 11.90625 22.410156 L 11.90625 21.089844 C 11.90625 20.722656 11.613281 20.425781 11.246094 20.425781 Z M 7.277344 20.425781 "/>
<path style=" stroke:none;fill-rule:nonzero;fill:rgb(25.882354%,25.882354%,25.882354%);fill-opacity:1;" d="M 15.875 1.574219 L 15.875 3.558594 C 22.839844 3.558594 28.445312 9.164062 28.445312 16.125 C 28.445312 23.089844 22.839844 28.695312 15.875 28.695312 C 15.429688 28.695312 14.988281 28.671875 14.554688 28.628906 L 14.554688 30.621094 C 14.988281 30.660156 15.429688 30.679688 15.875 30.679688 C 23.9375 30.679688 30.429688 24.1875 30.429688 16.125 C 30.429688 8.0625 23.9375 1.574219 15.875 1.574219 Z M 1.324219 16.125 C 1.324219 16.574219 1.34375 17.015625 1.382812 17.449219 L 3.375 17.449219 C 3.332031 17.015625 3.308594 16.574219 3.308594 16.125 Z M 1.324219 16.125 "/>
<path style=" stroke:none;fill-rule:nonzero;fill:rgb(14.901961%,65.098041%,60.392159%);fill-opacity:1;" d="M 15.875 4.21875 L 15.875 10.835938 C 18.808594 10.835938 21.167969 13.195312 21.167969 16.125 L 27.785156 16.125 C 27.785156 9.53125 22.472656 4.21875 15.875 4.21875 Z M 15.875 4.21875 "/>
</g>
</svg>

<svg xmlns="http://www.w3.org/2000/svg" width="32pt" height="32pt" viewBox="0 0 32 32"><path d="M15.875 1.574a14.517 14.517 0 0 0-14.55 14.551h1.984A12.54 12.54 0 0 1 15.875 3.559a12.54 12.54 0 0 1 12.57 12.566c0 6.965-5.605 12.57-12.57 12.57v1.985A14.524 14.524 0 0 0 30.43 16.125a14.52 14.52 0 0 0-14.555-14.55zm0 0" fill="#424242"/><path d="M15.875 10.836c-2.93 0-5.29 2.36-5.29 5.289a5.279 5.279 0 0 0 5.29 5.293 5.28 5.28 0 0 0 5.293-5.293c0-2.93-2.36-5.29-5.293-5.29zm0 2.644a2.64 2.64 0 0 1 2.648 2.645 2.64 2.64 0 0 1-2.648 2.648 2.64 2.64 0 0 1-2.645-2.648 2.639 2.639 0 0 1 2.645-2.645zm0 0" fill="#78909c"/><path d="M7.277 20.426a.664.664 0 0 0-.664.664v4.45a5.717 5.717 0 0 0-1.32-.153c-2.2 0-3.969 1.18-3.969 2.648 0 1.465 1.77 2.645 3.969 2.645 2.2 0 3.969-1.18 3.969-2.645h.047l.03-4.96h1.907a.66.66 0 0 0 .66-.665v-1.32a.66.66 0 0 0-.66-.664zm0 0" fill="#26a69a"/><path d="M15.875 1.574V3.56a12.54 12.54 0 0 1 12.57 12.566c0 6.965-5.605 12.57-12.57 12.57-.445 0-.887-.023-1.32-.066v1.992c.433.04.875.059 1.32.059A14.524 14.524 0 0 0 30.43 16.125a14.52 14.52 0 0 0-14.555-14.55zM1.325 16.125c0 .45.019.89.058 1.324h1.992a13.417 13.417 0 0 1-.066-1.324zm0 0" fill="#424242"/><path d="M15.875 4.219v6.617a5.279 5.279 0 0 1 5.293 5.289h6.617a11.884 11.884 0 0 0-11.91-11.906zm0 0" fill="#26a69a"/></svg>
